build/img/close_small.svg

<svg width="16" height="16" viewBox="0 0 16 16" fill="none" xmlns="http://www.w3.org/2000/svg">
<path fill-rule="evenodd" clip-rule="evenodd" d="M5.86349 4.80283L5.33316 4.2725L4.2725 5.33316L4.80283 5.86349L6.93917 7.99983L4.80283 10.1362L4.2725 10.6665L5.33316 11.7272L5.86349 11.1968L7.99983 9.06049L10.1362 11.1968L10.6665 11.7272L11.7272 10.6665L11.1968 10.1362L9.06049 7.99983L11.1968 5.86349L11.7272 5.33316L10.6665 4.2725L10.1362 4.80283L7.99983 6.93917L5.86349 4.80283Z" fill="#151515"/>
</svg>

<svg width="16" height="16" viewBox="0 0 16 16" fill="none" xmlns="http://www.w3.org/2000/svg"><path fill-rule="evenodd" clip-rule="evenodd" d="M5.863 4.803l-.53-.53-1.06 1.06.53.53L6.939 8l-2.136 2.136-.53.53 1.06 1.061.53-.53L8 9.06l2.136 2.137.53.53 1.061-1.06-.53-.53L9.06 8l2.137-2.137.53-.53-1.06-1.06-.53.53L8 6.939 5.863 4.803z" fill="#151515"/></svg>
